icons/svg/file.svg

<svg width="24" height="24" viewBox="0 0 24 24" fill="none" xmlns="http://www.w3.org/2000/svg">
<path d="M11.6875 3.06333C12.0664 3.23545 12.4152 3.47538 12.7152 3.77538L18.6835 9.74492C18.9828 10.0443 19.2223 10.3924 19.3943 10.7706M11.6875 3.06333C11.2371 2.85878 10.7442 2.75 10.24 2.75H7.79167C5.85867 2.75 4.29167 4.317 4.29167 6.25V17.75C4.29167 19.683 5.85868 21.25 7.79167 21.25H16.2083C18.1413 21.25 19.7083 19.683 19.7083 17.75V12.2195C19.7083 11.7148 19.5993 11.2213 19.3943 10.7706M11.6875 3.06333V4.10999V8.77056C11.6875 9.87513 12.5829 10.7706 13.6875 10.7706H18.35H19.3943" stroke="currentColor" stroke-width="1.5" stroke-linecap="round" stroke-linejoin="round"/>
</svg>

<svg xmlns="http://www.w3.org/2000/svg" width="24" height="24" fill="none" viewBox="0 0 24 24"><path stroke="currentColor" stroke-linecap="round" stroke-linejoin="round" stroke-width="1.5" d="M11.688 3.063a3.5 3.5 0 0 1 1.027.712l5.968 5.97c.3.3.54.647.711 1.026m-7.706-7.708a3.5 3.5 0 0 0-1.448-.313H7.792a3.5 3.5 0 0 0-3.5 3.5v11.5a3.5 3.5 0 0 0 3.5 3.5h8.416a3.5 3.5 0 0 0 3.5-3.5v-5.53c0-.505-.109-.999-.314-1.45m-7.706-7.707V8.77a2 2 0 0 0 2 2h5.706"/></svg>
